X:1
T:Title
%%score ( 1 2 ) ( 3 4 )
L:1/8
Q:1/4=130
M:3/4
K:Eb
V:1 treble nm="Grand Piano, Staff 1"
V:2 treble 
V:3 bass nm="Choir Pad, Gratitude, LM"
V:4 bass 
V:1
 [GB]2 B2 e2 | [EG]2 [EG]2 [GB]2 | [EG]2 [DF]2 [FA]2 | [B,D]2 [B,E]4 | [GB]2 B2 e2 | %5
w: By~Paul~Bost,~1837 * *|||||
 [EG]2 [EG]2 [GB]2 | [EG]2 [DF]2 [FA]2 | [B,D]2 [B,E]4 | [EG]2 [FA]2 [GB]2 | [FA]2 [EG]2 [B,F]2 | %10
w: |||||
 [EG]2 [FA]2 [GB]2 | [FA]2 [EG]4 | [GB]2 [GB]3 [FA] | [EG]2 [EG]3 [B,F] | [B,E]2 [DF]2 [FA]2 | %15
w: |||||
 [B,D]2 [B,E]4- | [B,E]4 z2 |] %17
w: ||
V:2
 z2 G4 | x6 | x6 | x6 | z2 G4 | x6 | x6 | x6 | x6 | x6 | x6 | x6 | x6 | x6 | x6 | x6 | x6 |] %17
V:3
 [E,E]2 [E,E]4 | [E,B,]2 [E,B,]4 | [E,B,]2 [B,,B,]4 | [B,,A,]2 [E,G,]4 | [E,E]2 [E,E]4 | %5
 [E,B,]2 [E,B,]4 | [E,B,]2 [B,,B,]4 | [B,,A,]2 [E,G,]4 | [E,B,]2 [B,,B,]4 | z2 B,4 | %10
 [E,B,]2 [B,,B,]4 | [B,,B,]2 [E,B,]4 | [E,E]2 [E,E]4 | z2 B,4 | [E,G,]2 [B,,B,]4 | %15
 [B,,A,]2 [E,G,]4- | [E,G,]4 z2 |] %17
V:4
 x6 | x6 | x6 | x6 | x6 | x6 | x6 | x6 | x6 | [B,,B,]2 E,2 D,2 | x6 | x6 | x6 | %13
 [E,B,]2 E,3- [E,A,] | x6 | x6 | x6 |] %17

